X:182
T: Captain Hawker's March
N: O'Farrell's Pocket Companion v.2 (Sky ed. p.96)
M: 4/4
L: 1/8
R: march
Q: 240
K: G
BA|G2 GG G2 D/G/B/G/|A2 AA A2 D/F/A/c/|Bdgf edcB|A2 AA A3c|
Bdga bgdB|ceab c'afd|B/d/g/d/ f/e/d/c/ B2 A2|G2 GG G2 :|
G2|BcdB edcB| ABcA dcBA|Bdgf edcB|A2 AA A3A|Bdga bgdB|ceab c'afd|
B/d/g/d/ f/e/d/c/ B2 A2|G2 GG G2 :|
